X: 1
T: Gan Ainm
M: 6/8
L: 1/8
R: jig
K: Dmaj
FEF DFA|def edB|AFF dAF|EFD EAG|
FEF DFA|def edB|g2e faf|1 dec d2A:|2 dec d2e||
f2d efg|afd =cAG|ABA GFG|Add cde|
f2d efg|afd cde|faf gec|dfe d2e:|
f2d edB|AFB AFD|f2d efg|faf g3|
aba gfe|fed cde|faf gec|1 dfe d2e:|2 dfe d2A||
